tools/download-figma-icons/icons/outlined-medium/sharing-charging-station.svg

<svg width="24" height="24" viewBox="0 0 24 24" fill="none" xmlns="http://www.w3.org/2000/svg">
<path fill-rule="evenodd" clip-rule="evenodd" d="M12 1.5C12.414 1.5 12.75 1.836 12.75 2.25C12.75 2.664 12.414 3 12 3C11.586 3 11.25 2.664 11.25 2.25C11.25 1.836 11.586 1.5 12 1.5ZM11.25 4.36125V6.75C11.25 7.16475 11.5852 7.5 12 7.5C12.4148 7.5 12.75 7.16475 12.75 6.75V4.36125C13.6208 4.05075 14.25 3.2265 14.25 2.25C14.25 1.0095 13.2405 0 12 0C10.7595 0 9.75 1.0095 9.75 2.25C9.75 3.2265 10.3792 4.05075 11.25 4.36125ZM21 3.75C21 4.164 21.336 4.5 21.75 4.5C22.164 4.5 22.5 4.164 22.5 3.75C22.5 3.336 22.164 3 21.75 3C21.336 3 21 3.336 21 3.75ZM21.75 1.5C22.9905 1.5 24 2.5095 24 3.75C24 4.7265 23.3708 5.55075 22.5 5.86125V7.5C22.5 7.7505 22.3748 7.9845 22.1663 8.124L19.9163 9.624C19.788 9.70875 19.6433 9.75 19.5008 9.75C19.2585 9.75 19.02 9.633 18.876 9.41625C18.6458 9.07125 18.7388 8.60625 19.0838 8.376L21 7.09875V5.86125C20.1293 5.55075 19.5 4.7265 19.5 3.75C19.5 2.5095 20.5095 1.5 21.75 1.5ZM14.25 22.5H7.5V11.1862C7.5 10.8075 7.8075 10.5 8.18625 10.5H13.5638C13.9425 10.5 14.25 10.8075 14.25 11.1862V22.5ZM17.757 10.6973C17.451 10.4183 16.9777 10.437 16.6973 10.743C16.4175 11.0483 16.4377 11.523 16.743 11.8027L18 12.9548V14.0625C18 14.9925 18.6727 15.75 19.5 15.75V21C19.5 21.414 19.164 21.75 18.75 21.75C18.336 21.75 18 21.414 18 21C18 20.9974 17.9993 20.9949 17.9985 20.9925C17.9977 20.9901 17.997 20.9876 17.997 20.985C17.9888 19.9597 17.1532 19.128 16.1265 19.128H15.75V11.1862C15.75 9.981 14.769 9 13.5638 9H8.18625C6.981 9 6 9.981 6 11.1862V23.25C6 23.6647 6.33525 24 6.75 24H15C15.4148 24 15.75 23.6647 15.75 23.25V20.628H16.1265C16.3312 20.628 16.4985 20.7952 16.4985 21C16.4985 21.0026 16.4993 21.0051 16.5 21.0075L16.5009 21.0105C16.5012 21.0119 16.5015 21.0134 16.5015 21.015C16.5098 22.248 17.5148 23.25 18.75 23.25C19.9905 23.25 21 22.2405 21 21V14.0002C21 13.7902 20.9123 13.5893 20.757 13.4475L17.757 10.6973ZM12 15.75H11.0722L12.186 13.8848C12.3982 13.5293 12.2827 13.0688 11.9265 12.8565C11.5717 12.6435 11.1105 12.759 10.8982 13.1153L9.1065 16.1153C8.96775 16.347 8.964 16.6358 9.0975 16.8698C9.231 17.1053 9.48 17.25 9.75 17.25H10.6777L9.564 19.1153C9.35175 19.4708 9.46725 19.9313 9.8235 20.1435C9.9435 20.2155 10.0762 20.25 10.2067 20.25C10.4625 20.25 10.7107 20.1195 10.8517 19.8848L12.6435 16.8848C12.7822 16.653 12.786 16.3643 12.6525 16.1303C12.519 15.8948 12.27 15.75 12 15.75ZM3 3.75C3 3.336 2.664 3 2.25 3C1.836 3 1.5 3.336 1.5 3.75C1.5 4.164 1.836 4.5 2.25 4.5C2.664 4.5 3 4.164 3 3.75ZM3 5.86125V7.09875L4.91625 8.376C5.26125 8.60625 5.35425 9.07125 5.124 9.41625C4.98 9.633 4.7415 9.75 4.49925 9.75C4.35675 9.75 4.212 9.70875 4.08375 9.624L1.83375 8.124C1.62525 7.9845 1.5 7.7505 1.5 7.5V5.86125C0.62925 5.55075 0 4.7265 0 3.75C0 2.5095 1.0095 1.5 2.25 1.5C3.4905 1.5 4.5 2.5095 4.5 3.75C4.5 4.7265 3.87075 5.55075 3 5.86125Z" fill="black"/>
</svg>

<svg xmlns="http://www.w3.org/2000/svg" width="24" height="24" fill="none" viewBox="0 0 24 24"><path fill="currentColor" fill-rule="evenodd" d="M12 1.5A.75.75 0 1 1 12 3a.75.75 0 0 1 0-1.5m-.75 2.861V6.75a.75.75 0 1 0 1.5 0V4.361c.87-.31 1.5-1.134 1.5-2.111C14.25 1.01 13.24 0 12 0S9.75 1.01 9.75 2.25c0 .977.63 1.8 1.5 2.111M21 3.75a.75.75 0 1 0 1.5 0 .75.75 0 0 0-1.5 0m.75-2.25C22.99 1.5 24 2.51 24 3.75c0 .976-.63 1.8-1.5 2.111V7.5a.75.75 0 0 1-.334.624l-2.25 1.5a.753.753 0 0 1-1.04-.208.75.75 0 0 1 .208-1.04L21 7.099V5.86a2.25 2.25 0 0 1-1.5-2.111c0-1.24 1.01-2.25 2.25-2.25m-7.5 21H7.5V11.186c0-.379.308-.686.686-.686h5.378c.379 0 .686.307.686.686zm3.507-11.803a.75.75 0 0 0-1.014 1.106L18 12.955v1.108c0 .93.673 1.687 1.5 1.687V21a.75.75 0 1 1-1.501-.008l-.002-.007a1.873 1.873 0 0 0-1.87-1.857h-.377v-7.942A2.19 2.19 0 0 0 13.564 9H8.186A2.19 2.19 0 0 0 6 11.186V23.25c0 .415.335.75.75.75H15a.75.75 0 0 0 .75-.75v-2.622h.377c.204 0 .372.167.372.372l.001.008v.003l.002.004a2.25 2.25 0 0 0 2.248 2.235c1.24 0 2.25-1.01 2.25-2.25v-7c0-.21-.088-.41-.243-.553zM12 15.75h-.928l1.114-1.865a.75.75 0 1 0-1.288-.77l-1.791 3a.748.748 0 0 0 .643 1.135h.928l-1.114 1.865a.75.75 0 1 0 1.288.77l1.791-3A.748.748 0 0 0 12 15.75m-9-12a.75.75 0 1 0-1.5 0 .75.75 0 0 0 1.5 0m0 2.111V7.1l1.916 1.277a.75.75 0 1 1-.832 1.248l-2.25-1.5A.75.75 0 0 1 1.5 7.5V5.861A2.25 2.25 0 0 1 0 3.75C0 2.51 1.01 1.5 2.25 1.5S4.5 2.51 4.5 3.75c0 .976-.63 1.8-1.5 2.111" clip-rule="evenodd"/></svg>
